X:1
T:Title
%%score { ( 1 2 ) | ( 3 4 5 ) }
L:1/8
Q:1/4=81
M:6/8
K:Ab
V:1 treble nm="Grand Piano"
V:2 treble 
V:3 bass 
V:4 bass 
V:5 bass 
V:1
 c2 B A2 G | .B3 z3 | .E3 z3 | A2 G B3 | d2 c B2 [A,=DF] | z3 .[B,G]3 | =D2- [DG] A2 F | G2 A B3 | %8
w: Robert~Harkness * * *||||||||
 c2 B A2 G | B2 A F A2 | E2 [=DF] [_DG]2 [CA] | [Fd]2 [Ec] [EB]3 | [Ge]2 [Bd] [Ac]2 [Ac] | %13
w: |||||
 [=Ad]2 [Ac] [FB] [Fd]2 | [Fc]2 [B,FB] [CEA]2 [EAc] | [EGc]2 [DEB] [CEA]3 |] %16
w: |||
V:2
 C6 | D6 | [E,C]6 | D3 z3 | D3 z3 | [G,D=E]2 [A,=DF] D- [DF]2 | .[A,F]3 z3 | x6 | C6 | D6 | x6 | %11
 x6 | x6 | x6 | x6 | x6 |] %16
V:3
 [A,,E,]6 | z2[K:treble] A F2 A | z2[K:treble] F G2 A | [B,,E,]3 [E,G,D]3 | z3 D2 B,, | %5
 B,,2 B,, z A,2 | z3 =D3 | [E,B,D]2 [E,A,C] [E,G,D]3 | [A,,E,]6 | [A,,F,]6 | %10
 [C,A,]2 [_C,A,] [B,,E,]2 [A,,E,] | [A,,A,]2 [A,,A,] [E,G,]3 | [E,B,]2 [G,E] [A,E]2 [A,E] | %13
 [F,F]2 [F,E] [B,D] [B,,B,]2 | [C,=A,]2 D, E,2 E, | E,2 E, A,,3 |] %16
V:4
 x6 | [A,,F,]6[K:treble] | A,,6[K:treble] | x6 | [B,,F,]6 | z3 B,,3 | z2 G, F,2 A, | x6 | x6 | x6 | %10
 x6 | x6 | x6 | x6 | x6 | x6 |] %16
V:5
 x6 | x2[K:treble] x4 | x2[K:treble] x4 | x6 | x6 | x6 | B,,6 | x6 | x6 | x6 | x6 | x6 | x6 | x6 | %14
 x6 | x6 |] %16

